icons/buck.svg

<svg width="16" height="16" viewBox="0 0 16 16" fill="none" xmlns="http://www.w3.org/2000/svg">
<path d="M2.75 3H1.25V5.31066L3.68934 7.75H6.125L6.5 8.25H3.18934L5.93934 11L2.96967 13.9697L3 14H5.06066L8.06066 11L6.81066 9.75H13.0229L10.5222 11.4172L7.93934 14H10.0607L11.4778 12.5828L14.75 10.4014V8.25H11.0288L10.5213 7.5394L11.75 6.31066V4H10.25V5.68934L9.63737 6.30197L9.25 5.75965V4H7.75V6.24035L9.18546 8.25H8.375L5.75 4.75V3H4.25V5.25L5 6.25H4.31066L2.75 4.68934V3Z" fill="#4566A9"/>
</svg>

<svg xmlns="http://www.w3.org/2000/svg" width="16" height="16" fill="none" viewBox="0 0 16 16"><path fill="#4566A9" d="M2.75 3h-1.5v2.31l2.44 2.44h2.435l.375.5H3.19L5.94 11l-2.97 2.97L3 14h2.06l3-3-1.25-1.25h6.213l-2.5 1.667L7.938 14h2.122l1.417-1.417L14.75 10.4V8.25h-3.721l-.508-.71 1.229-1.23V4h-1.5v1.69l-.613.612-.387-.542V4h-1.5v2.24l1.435 2.01h-.81L5.75 4.75V3h-1.5v2.25l.75 1h-.69L2.75 4.69z"/></svg>
